X:1
T:School Days
M:3/4
L:1/4
K:Bb
 d c B| d c B| B3| A3| c B A| c2 A| F3-| F2 z| D G G| G2 D| E G G|\
 G3| E F G| A2 e| d3-| e2 z| d c B| d c B| B3| A3| c B A| c B G| F3-|\
 F2 z| =E G d| c2 F| =E G d| c2 ^c| =e d B| A2 G| c3-| ^c2 z| d3| F3|\
 c3| F3| B2 A| B2 c| B3| A2 z| A e G| A e G| A z A| A3| G d F| G d F|\
 G z G| G3| F B c| d2 e| d2 c| G3| F A B| c2 d| c2 B| F2 F/2^F/2| G ^F G|\
 A2 B| d2 d| A2 B| c d G| c d _G| B3-| B2||
